X: 3471
T: Between
R: jig
M: 6/8
K: Eminor
z3 BEF|"Em"G2G2FE|"Am"GAA2GF|"B"FBB BFB|FGFFEF|
"Em"G2G2FE|"Am"GAA AGA|"G"B2B2cB|"B"AGB AGF|
"Em"G2G2FE|"Am"GAA AGA|"G"B2B2cB|"B"efg fef|
|:"Em"g2Beg"D"f-|fed2 AB|"Am"c2EAc"B"B-|BAG FEF:|

